X: 43183
T: Wise Maid, The
R: reel
M: 4/4
K: Dmajor
|:~F3 A FEDE|F~A3 AFEF|d2 eg fdef|dBAF BE E z|
~F3 A FEDE|F~A3 AFEF|d2 eg fdef|dBAG FDD z:|
d2 AG FDFA|dfaf gfez|fAdf eAce|dfed c~A3|
BDGB ADFA|dfaf gfez|(3Bcd ce dBAF|GEAG FD2z:|

